src/assets/Background.svg

<svg width="100%" height="100%" id="svg" viewBox="0 0 1440 390" xmlns="http://www.w3.org/2000/svg" class="transition duration-300 ease-in-out delay-150"><path d="M 0,400 C 0,400 0,80 0,80 C 85.81025641025639,75.13589743589745 171.62051282051277,70.27179487179488 262,70 C 352.3794871794872,69.72820512820512 447.32820512820524,74.04871794871794 516,74 C 584.6717948717948,73.95128205128206 627.0666666666666,69.53333333333333 708,75 C 788.9333333333334,80.46666666666667 908.4051282051282,95.81794871794872 998,103 C 1087.5948717948718,110.18205128205128 1147.3128205128207,109.19487179487179 1216,104 C 1284.6871794871793,98.80512820512821 1362.3435897435897,89.4025641025641 1440,80 C 1440,80 1440,400 1440,400 Z" stroke="none" stroke-width="0" fill="#f78da7" fill-opacity="0.265" class="transition-all duration-300 ease-in-out delay-150 path-0"></path><path d="M 0,400 C 0,400 0,160 0,160 C 87.90000000000003,169.94615384615383 175.80000000000007,179.8923076923077 264,182 C 352.19999999999993,184.1076923076923 440.69999999999993,178.37692307692308 516,175 C 591.3000000000001,171.62307692307692 653.4,170.60000000000002 717,164 C 780.6,157.39999999999998 845.7,145.22307692307692 919,143 C 992.3,140.77692307692308 1073.8,148.5076923076923 1162,153 C 1250.2,157.4923076923077 1345.1,158.74615384615385 1440,160 C 1440,160 1440,400 1440,400 Z" stroke="none" stroke-width="0" fill="#f78da7" fill-opacity="0.4" class="transition-all duration-300 ease-in-out delay-150 path-1"></path><path d="M 0,400 C 0,400 0,240 0,240 C 66.77948717948718,246.42820512820515 133.55897435897435,252.85641025641027 211,245 C 288.44102564102565,237.14358974358973 376.5435897435897,215.00256410256412 458,210 C 539.4564102564103,204.99743589743588 614.2666666666668,217.13333333333335 695,233 C 775.7333333333332,248.86666666666665 862.3897435897436,268.4641025641025 954,264 C 1045.6102564102564,259.5358974358975 1142.174358974359,231.01025641025643 1224,223 C 1305.825641025641,214.98974358974357 1372.9128205128204,227.49487179487178 1440,240 C 1440,240 1440,400 1440,400 Z" stroke="none" stroke-width="0" fill="#f78da7" fill-opacity="0.53" class="transition-all duration-300 ease-in-out delay-150 path-2"></path><path d="M 0,400 C 0,400 0,320 0,320 C 74.98461538461538,303.7102564102564 149.96923076923076,287.4205128205128 226,291 C 302.03076923076924,294.5794871794872 379.10769230769233,318.0282051282051 458,318 C 536.8923076923077,317.9717948717949 617.6000000000001,294.4666666666667 695,291 C 772.3999999999999,287.5333333333333 846.4923076923076,304.1051282051282 924,316 C 1001.5076923076924,327.8948717948718 1082.4307692307693,335.1128205128205 1169,335 C 1255.5692307692307,334.8871794871795 1347.7846153846153,327.44358974358977 1440,320 C 1440,320 1440,400 1440,400 Z" stroke="none" stroke-width="0" fill="#f78da7" fill-opacity="1" class="transition-all duration-300 ease-in-out delay-150 path-3"></path></svg>

<svg xmlns="http://www.w3.org/2000/svg" class="transition duration-300 ease-in-out delay-150" viewBox="0 0 1440 390"><path fill="#f78da7" fill-opacity=".265" stroke-width="0" d="M0 400V80c85.81-4.864 171.62-9.728 262-10 90.38-.272 185.328 4.049 254 4 68.672-.049 111.067-4.467 192 1s200.405 20.818 290 28c89.595 7.182 149.313 6.195 218 1 68.687-5.195 146.344-14.597 224-24v320z" class="transition-all duration-300 ease-in-out delay-150 path-0"/><path fill="#f78da7" fill-opacity=".4" stroke-width="0" d="M0 400V160c87.9 9.946 175.8 19.892 264 22 88.2 2.108 176.7-3.623 252-7 75.3-3.377 137.4-4.4 201-11 63.6-6.6 128.7-18.777 202-21 73.3-2.223 154.8 5.508 243 10 88.2 4.492 183.1 5.746 278 7v240z" class="transition-all duration-300 ease-in-out delay-150 path-1"/><path fill="#f78da7" fill-opacity=".53" stroke-width="0" d="M0 400V240c66.78 6.428 133.559 12.856 211 5s165.544-29.997 247-35c81.456-5.003 156.267 7.133 237 23s167.39 35.464 259 31c91.61-4.464 188.174-32.99 270-41 81.826-8.01 148.913 4.495 216 17v160z" class="transition-all duration-300 ease-in-out delay-150 path-2"/><path fill="#f78da7" stroke-width="0" d="M0 400v-80c74.985-16.29 149.97-32.58 226-29 76.03 3.58 153.108 27.028 232 27 78.892-.028 159.6-23.533 237-27 77.4-3.467 151.492 13.105 229 25 77.508 11.895 158.43 19.113 245 19 86.57-.113 178.785-7.556 271-15v80z" class="transition-all duration-300 ease-in-out delay-150 path-3"/></svg>
